X: 135014
Q: "Irish Reel."
M: 2/4
L: 1/16
K: Em
|: ue2 |\
(ef) |\
(3(gag) (3(fgf) edBc | d2ed Bdd2 |
(3(gag) (3(fgf) edBd | egfd e2(ef) |\
(3(gag) (3(fgf) edBc | d2(ed) Bddg |\
bgaf gfed | egfd e2 |]


